X:1
T:Title
%%score { ( 1 4 ) | ( 2 3 ) }
L:1/8
M:4/4
K:C
V:1 treble nm="Grand Piano"
V:4 treble 
V:2 bass 
V:3 bass 
V:1
 z4 z2[Q:1/4=106] G2 | c2 G2 E2 F2 | [A,CA]4 [G,CG]2 [CEG]2 | [CFA]3 [CFA] [DFB]2 [B,FG]2 | %4
[M:3/4] [CEc]6 |[M:1/4] [DG]2 |[M:4/4] [CEc]2 [DEB]2 [CEA]2 [_B,EG]2 | ^F2 A2 [Dd]2 [Ec]2 | %8
 [D^FB]2 [CEA]2 [DFB]2 [CFA]2 |[M:3/4] [B,G]6 |[M:1/4] [G,CG]2 | %11
[M:4/4] [B,FG]2 [CEA]2 [DG]2 [CFc]2 | F3- [FA] G2 G2 | c2 G2 E2 [DF]G |[M:3/4] A6 |[M:1/4] A2 | %16
[M:4/4] z2 G2 z4 | D3 E F2 A2 | G2 c2 [Fc]2 [FB]2 | %19
[M:17/8] [Ec]-[Ec]-[Ec]-[Ec]-[Ec]-[Ec]- [Ec]3 z z z z z z z2 |[M:4/4] [Fc]8 | [Ec]8 |] %22
V:2
 z4 z2 G,2 | C2 G,2 E,2 F,2 | F,4 E,2 C,2 | F,3 E, D,2 G,2 |[M:3/4] C,6 |[M:1/4] B,,2 | %6
[M:4/4] A,,2 B,,2 C,2 ^C,2 | D4 z4 | D,2 D,2 D,2 D,2 |[M:3/4] z2 G,2 F,2 |[M:1/4] E,2 | %11
[M:4/4] D,2 C,2 B,,2 A,,2 | G,,2 z[K:treble] C [G,B,F]2[K:bass] [F,B,D]2 | %13
 [E,G,C]2 [E,G,C]2 [C,C]2 z E |[M:3/4] [F,A,F]6 |[M:1/4] [E,G,C]2 | %16
[M:4/4] [D,F,D]2 [G,B,]2 [E,G,C]2 [C,G,C]2 | A,3- [E,A,^C] [D,A,D]2 [F,B,D]2 | %18
 [E,C]2 [A,CE]2 [D,D]2 [G,D]2 | %19
[M:17/8] [C,G,C]-[C,G,C]-[C,G,C]-[C,G,C]-[C,G,C]-[C,G,C]- [C,G,C]3 z z z z z z z2 | %20
[M:4/4] [F,A,]8 | [C,G,]8 |] %22
V:3
 x8 | x8 | x8 | x8 |[M:3/4] x6 |[M:1/4] x2 |[M:4/4] x8 | [D,A,]2 [C,^F,]2 [B,,G,]2 [C,G,]2 | x8 | %9
[M:3/4] G,,6 |[M:1/4] x2 |[M:4/4] x8 | z2 D,2[K:treble] z4[K:bass] | z4 z2 [C,_B,]2 |[M:3/4] x6 | %15
[M:1/4] x2 |[M:4/4] x8 | F,4 z4 | x8 |[M:17/8] x17 |[M:4/4] x8 | x8 |] %22
V:4
 x8 | x8 | x8 | x8 |[M:3/4] x6 |[M:1/4] x2 |[M:4/4] x8 | x8 | x8 |[M:3/4] x6 |[M:1/4] x2 | %11
[M:4/4] x8 | [DB]4 z4 | x8 |[M:3/4] x6 |[M:1/4] x2 |[M:4/4] B2 z F, c2 E2 | x8 | x8 |[M:17/8] x17 | %20
[M:4/4] x8 | x8 |] %22

